public/icon/svg/Bejson.svg

<?xml version="1.0" encoding="UTF-8"?>
<svg width="1024px" height="1024px" viewBox="0 0 1024 1024" version="1.1" xmlns="http://www.w3.org/2000/svg" xmlns:xlink="http://www.w3.org/1999/xlink">
    <title>Bejson</title>
    <defs>
        <linearGradient x1="50%" y1="0%" x2="50%" y2="100%" id="linearGradient-1">
            <stop stop-color="#00C5FF" offset="0%"></stop>
            <stop stop-color="#0073FF" offset="100%"></stop>
        </linearGradient>
        <path d="M267,159 L586.173432,159 C639.369004,159 680.206642,175.736016 708.686347,209.208049 C737.166052,242.680082 751.405904,284.121646 751.405904,333.532742 C751.405904,374.974307 741.243542,410.518417 720.918819,440.165075 C707.369004,459.929513 687.546125,475.549795 661.450185,487.025921 C701.095941,499.139609 730.265683,519.940086 748.95941,549.427353 C767.653137,578.91462 777,615.972942 777,660.602319 C777,696.943383 770.350554,729.618463 757.051661,758.627558 C743.752768,787.636653 725.560886,810.588904 702.476015,827.484311 C688.173432,838.004093 666.594096,845.654843 637.738007,850.436562 C599.346863,856.812187 573.878229,860 561.332103,860 L267,860 L267,159 Z M439.00738,433.94884 L513.154982,433.94884 C539.752768,433.94884 558.258303,428.131082 568.671587,416.495566 C579.084871,404.86005 584.291513,388.044338 584.291513,366.048431 C584.291513,345.64643 579.084871,329.707367 568.671587,318.231241 C558.258303,306.755116 540.129151,301.017053 514.284133,301.017053 L439.00738,301.017053 L439.00738,433.94884 Z M439.00738,709.375853 L525.95203,709.375853 C555.309963,709.375853 576.01107,702.761141 588.055351,689.531719 C600.099631,676.302296 606.121771,658.530241 606.121771,636.215553 C606.121771,615.49477 600.162362,598.838449 588.243542,586.246589 C576.324723,573.654729 555.435424,567.358799 525.575646,567.358799 L439.00738,567.358799 L439.00738,709.375853 Z" id="path-2"></path>
    </defs>
    <g id="ICON-新版方图标" stroke="none" stroke-width="1" fill="none" fill-rule="evenodd">
        <g id="编组-34">
            <g id="编组-35">
                <rect id="蒙版路径" fill="url(#linearGradient-1)" x="0" y="0" width="1024" height="1024"></rect>
                <polygon id="矩形" fill="#FFFFFF" points="102 101 439.00738 101 439.00738 0 584.291513 0 584.291513 101 921 101 921 449.835694 1024 449.835694 1024 581.306263 921 581.306263 921 924 584.291513 924 584.5 1024 439.00738 1024 439.00738 924 102 924 102 581.306263 0 581.306263 0 449.835694 102 449.835694"></polygon>
            </g>
            <mask id="mask-3" fill="white">
                <use xlink:href="#path-2"></use>
            </mask>
            <use id="形状" fill="#2F2E2E" fill-rule="nonzero" xlink:href="#path-2"></use>
            <rect id="蒙版路径" fill="url(#linearGradient-1)" mask="url(#mask-3)" x="0" y="0" width="1024" height="1024"></rect>
        </g>
    </g>
</svg>

<svg xmlns="http://www.w3.org/2000/svg" xmlns:xlink="http://www.w3.org/1999/xlink" width="1024" height="1024"><defs><linearGradient id="a" x1="50%" x2="50%" y1="0%" y2="100%"><stop offset="0%" stop-color="#00C5FF"/><stop offset="100%" stop-color="#0073FF"/></linearGradient><path id="b" d="M267 159h319.173c53.196 0 94.034 16.736 122.513 50.208 28.48 33.472 42.72 74.914 42.72 124.325 0 41.441-10.162 76.985-30.487 106.632-13.55 19.765-33.373 35.385-59.469 46.86 39.646 12.115 68.816 32.915 87.51 62.402C767.652 578.915 777 615.973 777 660.602c0 36.341-6.65 69.016-19.948 98.026-13.3 29.009-31.491 51.96-54.576 68.856-14.303 10.52-35.882 18.17-64.738 22.953-38.391 6.375-63.86 9.563-76.406 9.563H267zm172.007 274.949h74.148c26.598 0 45.103-5.818 55.517-17.453 10.413-11.636 15.62-28.452 15.62-50.448 0-20.402-5.207-36.34-15.62-47.817-10.414-11.476-28.543-17.214-54.388-17.214h-75.277V433.95m0 275.427h86.945c29.358 0 50.06-6.615 62.103-19.844 12.045-13.23 18.067-31.002 18.067-53.316 0-20.721-5.96-37.378-17.878-49.97-11.92-12.591-32.809-18.887-62.668-18.887h-86.569v142.017"/></defs><g fill="none" fill-rule="evenodd"><path fill="url(#a)" d="M0 0h1024v1024H0z"/><path fill="#FFF" d="M102 101h337.007V0h145.285v101H921v348.836h103v131.47H921V924H584.292l.208 100H439.007V924H102V581.306H0v-131.47h102z"/><mask id="c" fill="#fff"><use xlink:href="#b"/></mask><use xlink:href="#b" fill="#2F2E2E" fill-rule="nonzero"/><path fill="url(#a)" d="M0 0h1024v1024H0z" mask="url(#c)"/></g></svg>
